!!!OTL-incipit: WOHL HEUTE NOCH UND MORGEN
!!!ARE: Europa, Mitteleuropa, Deutschland
!!!SCT: Z0079
!!!TXL: @@DE
!!!YEM: Copyright 1995, estate of Helmut Schaffrath.
**kern	**text
*ICvox	*
*M6/4	*
*k[f#]	*
*e:	*
!LO:TX:a:t=Alt-Deutſch.	!
!LO:TX:a:t=Aus dem 16. oder 17. Jahrhundert.	!
{4e	Wohl
=1	=1
2cc	heu-
4b/	-te
2a	noch
4b/	und
=2	=2
2.f#	mor-
2e}	-gen,
{4b/	da
=3	=3
2ee	blei-
4gg	-be
2ff#	ich
4ee	bei
=4	=4
[2.b/	dir,
[2b/]}	wenn
{4b]/	.
=5	=5
2dd	a-
4a	-ber
2b/	kommt
4dd	der
=6	=6
2b/	drit-
4a	-te
2g}	Tag,
{4b/	ſo
=7	=7
2ee	muß
4gg	ich
2ff#	fort
4ee	von
=8	=8
[2.dd#	hier,
2dd#]}	.
{4b	ſo
=9	=9
2g	muß
4b/	ich
2f#	fort
4e	von
=10	=10
2.e	hier.
2e}	.
==	==
!!!AGN: Sagen - Lied, Romanze, Tod
!!!ONB: ESAC (Essen Associative Code) Database: ZUCCAL
!!!AMT: compound duple
!!!AIN: vox
!!!EED: Helmut Schaffrath
!!!EEV: 1.0
!!!GTL: I. Ernste Romanzen und Sagen.
!!!URL-scan: https://www.digitale-sammlungen.de/de/view/bsb11160571?page=160
!!!ENC: Anna Maria Matuszewska
!!!EEV: 2025/01/27
*-	*-
